X: 285
T: Jiemei taqing
L: 1/8
M: 2/4
K: G
AA2B [I:setbarnb 1]| 
d4 | 
e> d B A | 
G E d B | 
A4 | 
A2d2 | 
e d B d | 
A BG2 | 
B2A G | 
A2E2 | 
D4 | 
G> A E G | 
A d A G | 
E D A, B, | 
D3E | 
D2z2 |]

@@@ Tune index: 9159
